Resources/Public/Images/Icons/Glyphicons/pencil.svg

<svg xmlns="http://www.w3.org/2000/svg" width="32" height="32"><path d="M26.1 1c.3 0 .6.1.8.3L30.6 5c.3.3.4.6.4.9 0 .3-.1.6-.3.8L28.3 9 23 3.7l2.3-2.3c.3-.3.5-.4.8-.4zm.1 10l-15 15L6 20.8l15-15 5.2 5.2zM9.1 28.3L1 31l2.7-8.2 5.4 5.5z"/></svg>

<?xml version="1.0" encoding="utf-8"?>
<!-- Generator: Adobe Illustrator 22.1.0, SVG Export Plug-In . SVG Version: 6.00 Build 0)  -->
<svg version="1.1" id="Ebene_1" xmlns="http://www.w3.org/2000/svg" xmlns:xlink="http://www.w3.org/1999/xlink" x="0px" y="0px"
	 width="32px" height="32px" viewBox="0 0 32 32" style="enable-background:new 0 0 32 32;" xml:space="preserve">
<path d="M26.1,1c0.3,0,0.6,0.1,0.8,0.3l3.7,3.7C30.9,5.3,31,5.6,31,5.9c0,0.3-0.1,0.6-0.3,0.8l-2.4,2.3L23,3.7l2.3-2.3
	C25.6,1.1,25.8,1,26.1,1L26.1,1z M26.2,11l-15,15l-5.2-5.2l15-15L26.2,11z M9.1,28.3L1,31l2.7-8.2L9.1,28.3z"/>
</svg>
